Adwaita++/mimetypes/16/application-x-trash.svg

<svg height="16.001" width="16" xmlns="http://www.w3.org/2000/svg">
  <path d="m2.882221 11.509691c-.1599375.286809-.2872446.718336-.2872446.990249 0 .06312 0 .143409.01569.254788l-1.99902275-3.4326335c-.06398925-.1113785-.11164365-.2711685-.11164365-.4151339 0-.1441528.0476891-.3193884.11164365-.4309603l.95968305-1.6765396-1.0713267-.6062278 3.4862437-.0644344 1.6947905 3.049334-1.0869892-.6226012zm1.5355216-10.0497175c.3035813-.52743655.7997455-.8148152 1.4069027-.8148152.6561073 0 1.1679518.30375575 1.5354961.9256184l.5438196.9099806-1.8874034 3.632399-3.0540425-2.1469481zm.2232629 12.8116715c-.9113826 0-1.6628278-.750374-1.6628278-1.660334 0-.255531.1122878-.687034.2722318-.958204l.5111817-.909978h3.7904627v3.52854h-2.9110484zm3.0390484-12.9081477c-.2396193-.41458325-.5595074-.7027005-.9433763-.86249275h3.9334324c.351875 0 .623463.14415375.784076.4158705l.97537 1.66033315 1.055095-.6231731-1.695558 3.0342431-3.4692686-.048797 1.0713324-.6062212zm6.0611671 9.4116457c.479182 0 .879389-.127754 1.214965-.382735l-1.98336 3.448258c-.159944.271162-.447382.442143-.782864.43096h-1.871734v1.229373l-1.7907788-2.985446 1.7907788-2.9862055v1.2457705h3.422993zm1.534203-2.8740627c.144282.2555306.224576.5266931.224576.8142375 0 .5749252-.368208 1.1816922-.87939 1.4685232-.240237.128515-.577063.228342-.911383.208592h-1.056313l-1.88618-3.2579202 3.054131-1.7404293z" fill="#474747"/>
</svg>

<svg xmlns="http://www.w3.org/2000/svg" width="16" height="16.001" version="1.1">
 <path d="M 2.882221,11.509691 C 2.7222835,11.7965 2.5949764,12.228027 2.5949764,12.49994 c 0,0.06312 0,0.143409 0.01569,0.254788 L 0.61164365,9.3220945 C 0.5476544,9.210716 0.5,9.050926 0.5,8.9069606 0.5,8.7628078 0.5476891,8.5875722 0.61164365,8.4760003 L 1.5713267,6.7994607 0.5,6.1932329 3.9862437,6.1287985 5.6810342,9.1781325 4.594045,8.5555313 Z M 4.4177426,1.4599735 C 4.7213239,0.93253695 5.2174881,0.6451583 5.8246453,0.6451583 c 0.6561073,0 1.1679518,0.30375575 1.5354961,0.9256184 L 7.903961,2.4807573 6.0165576,6.1131563 2.9625151,3.9662082 Z M 4.6410055,14.271645 c -0.9113826,0 -1.6628278,-0.750374 -1.6628278,-1.660334 0,-0.255531 0.1122878,-0.687034 0.2722318,-0.958204 l 0.5111817,-0.909978 h 3.7904627 v 3.52854 H 4.6410055 Z M 7.6800539,1.3634973 C 7.4404346,0.94891405 7.1205465,0.6607968 6.7366776,0.50100455 H 10.67011 c 0.351875,0 0.623463,0.14415375 0.784076,0.4158705 L 12.429556,2.5772082 13.484651,1.9540351 11.789093,4.9882782 8.3198244,4.9394812 9.3911568,4.33326 Z m 6.0611671,9.4116457 c 0.479182,0 0.879389,-0.127754 1.214965,-0.382735 l -1.98336,3.448258 c -0.159944,0.271162 -0.447382,0.442143 -0.782864,0.43096 h -1.871734 v 1.229373 L 8.5274492,12.515553 10.318228,9.5293475 v 1.2457705 h 3.422993 z M 15.275424,7.9010803 C 15.419706,8.1566109 15.5,8.4277734 15.5,8.7153178 c 0,0.5749252 -0.368208,1.1816922 -0.87939,1.4685232 -0.240237,0.128515 -0.577063,0.228342 -0.911383,0.208592 h -1.056313 l -1.88618,-3.2579202 3.054131,-1.7404293 z" style="fill:#474747"/>
</svg>
